src/xmb/retrosystem/menu_help.svg

<?xml version="1.0" encoding="UTF-8" standalone="no"?>
<svg
   xmlns:dc="http://purl.org/dc/elements/1.1/"
   xmlns:cc="http://creativecommons.org/ns#"
   xmlns:rdf="http://www.w3.org/1999/02/22-rdf-syntax-ns#"
   xmlns:svg="http://www.w3.org/2000/svg"
   xmlns="http://www.w3.org/2000/svg"
   xmlns:sodipodi="http://sodipodi.sourceforge.net/DTD/sodipodi-0.dtd"
   xmlns:inkscape="http://www.inkscape.org/namespaces/inkscape"
   version="1.1"
   id="Calque_1"
   x="0px"
   y="0px"
   width="64px"
   height="64px"
   viewBox="0 0 64 64"
   enable-background="new 0 0 64 64"
   xml:space="preserve"
   inkscape:version="0.92.3 (2405546, 2018-03-11)"
   sodipodi:docname="menu_help.svg"
   inkscape:export-filename="/media/alfrix/DATOS/xmb/menu_help.png"
   inkscape:export-xdpi="90"
   inkscape:export-ydpi="90"><metadata
     id="metadata8"><rdf:RDF><cc:Work
         rdf:about=""><dc:format>image/svg+xml</dc:format><dc:type
           rdf:resource="http://purl.org/dc/dcmitype/StillImage" /><dc:title /></cc:Work></rdf:RDF></metadata><defs
     id="defs6" /><sodipodi:namedview
     pagecolor="#ffffff"
     bordercolor="#666666"
     borderopacity="1"
     objecttolerance="10"
     gridtolerance="10"
     guidetolerance="10"
     inkscape:pageopacity="0"
     inkscape:pageshadow="2"
     inkscape:window-width="1920"
     inkscape:window-height="1001"
     id="namedview4"
     showgrid="false"
     inkscape:zoom="11.313709"
     inkscape:cx="18.120245"
     inkscape:cy="32.247289"
     inkscape:window-x="-9"
     inkscape:window-y="-9"
     inkscape:window-maximized="1"
     inkscape:current-layer="Calque_1"><inkscape:grid
       type="xygrid"
       id="grid826" /></sodipodi:namedview><path
     inkscape:connector-curvature="0"
     d="m 41.428095,16 h -1.59686 -15.66247 -1.597216 L 21.73859,17.392364 13.907355,30.483273 13,32 13.907355,33.517091 21.73859,46.608 22.571549,48 h 1.597216 15.66247 1.59686 L 42.261054,46.608 50.092289,33.517091 51,32 50.092289,30.483273 42.261054,17.392364 Z"
     style="fill:#354f9f;fill-opacity:1;fill-rule:nonzero;stroke:#1a1a1a;stroke-width:1"
     id="path28" /><g
     id="g839"
     transform="translate(0.99999987)"><path
       sodipodi:nodetypes="ccccc"
       inkscape:connector-curvature="0"
       id="rect3336"
       d="m 29.5,43.5 v -3 h 3 v 3 z"
       style="color:#000000;clip-rule:nonzero;display:inline;overflow:visible;visibility:visible;opacity:1;isolation:auto;mix-blend-mode:normal;color-interpolation:sRGB;color-interpolation-filters:linearRGB;solid-color:#000000;solid-opacity:1;fill:#f2f2f2;fill-opacity:1;fill-rule:nonzero;stroke:#f2f2f2;stroke-width:1;stroke-linecap:butt;stroke-linejoin:miter;stroke-miterlimit:4;stroke-dasharray:none;stroke-dashoffset:0;stroke-opacity:1;color-rendering:auto;image-rendering:auto;shape-rendering:auto;text-rendering:auto;enable-background:accumulate" /><path
       d="m 30.011248,37 v -0.78125 c 0,-1.126894 0.179924,-2.04072 0.539772,-2.741478 0.359849,-0.710228 0.994318,-1.444129 1.903409,-2.201705 1.032197,-0.871212 1.70928,-1.496213 2.031251,-1.875 0.321969,-0.378788 0.549242,-0.757576 0.681818,-1.136364 0.132575,-0.378787 0.198863,-0.819129 0.198863,-1.321022 0,-0.937501 -0.303031,-1.657197 -0.909091,-2.159091 -0.60606,-0.501894 -1.477273,-0.752841 -2.613636,-0.752841 -0.757576,0 -1.500947,0.0947 -2.230114,0.284091 -0.719696,0.189394 -1.529356,0.501894 -2.428977,0.9375 l -0.894887,-2.031251 c 1.799243,-0.956439 3.707387,-1.434659 5.724432,-1.434659 1.799243,0 3.214962,0.449811 4.24716,1.349432 1.032197,0.890152 1.548295,2.140152 1.548295,3.75 0,0.700758 -0.0947,1.321023 -0.284091,1.860796 -0.189394,0.539772 -0.47822,1.051136 -0.866477,1.534091 -0.378788,0.482954 -1.141098,1.202651 -2.286932,2.159091 -0.9375,0.804924 -1.5625,1.472538 -1.875,2.002842 -0.30303,0.520833 -0.454545,1.212121 -0.454545,2.073863 V 37 Z"
       id="path4299"
       inkscape:connector-curvature="0"
       sodipodi:nodetypes="csccssssscccscsscccscc"
       style="font-style:normal;font-variant:normal;font-weight:normal;font-stretch:normal;font-size:medium;line-height:125%;font-family:sans-serif;-inkscape-font-specification:sans-serif;letter-spacing:0px;word-spacing:0px;fill:#f2f2f2;fill-opacity:1;stroke:#f2f2f2;stroke-width:2;stroke-linecap:butt;stroke-linejoin:miter;stroke-miterlimit:4;stroke-dasharray:none;stroke-opacity:1" /></g></svg>

<svg xmlns="http://www.w3.org/2000/svg" xml:space="preserve" width="64" height="64"><path d="M41.428 16H22.572l-.833 1.392-7.832 13.091L13 32l.907 1.517 7.832 13.091.833 1.392h18.856l.833-1.392 7.831-13.09L51 32l-.908-1.517-7.83-13.09Z" style="fill:#354f9f;fill-opacity:1;fill-rule:nonzero;stroke:#1a1a1a;stroke-width:1"/><path d="M29.5 43.5v-3h3v3z" style="color:#000;clip-rule:nonzero;display:inline;overflow:visible;visibility:visible;opacity:1;isolation:auto;mix-blend-mode:normal;color-interpolation:sRGB;color-interpolation-filters:linearRGB;solid-color:#000;solid-opacity:1;fill:#f2f2f2;fill-opacity:1;fill-rule:nonzero;stroke:#f2f2f2;stroke-width:1;stroke-linecap:butt;stroke-linejoin:miter;stroke-miterlimit:4;stroke-dasharray:none;stroke-dashoffset:0;stroke-opacity:1;color-rendering:auto;image-rendering:auto;shape-rendering:auto;text-rendering:auto" transform="translate(1)"/><path d="M30.011 37v-.781q0-1.69.54-2.742.54-1.065 1.903-2.201 1.55-1.308 2.032-1.875.483-.57.681-1.137.2-.568.2-1.32 0-1.407-.91-2.16-.909-.753-2.613-.753-1.137 0-2.23.284-1.08.285-2.43.938l-.894-2.031a12 12 0 0 1 5.724-1.435q2.7 0 4.247 1.35 1.549 1.335 1.549 3.75 0 1.05-.285 1.86a5.2 5.2 0 0 1-.866 1.534q-.568.724-2.287 2.16-1.405 1.207-1.875 2.002-.455.781-.455 2.074V37Z" style="font-style:normal;font-variant:normal;font-weight:400;font-stretch:normal;font-size:medium;line-height:125%;font-family:sans-serif;-inkscape-font-specification:sans-serif;letter-spacing:0;word-spacing:0;fill:#f2f2f2;fill-opacity:1;stroke:#f2f2f2;stroke-width:2;stroke-linecap:butt;stroke-linejoin:miter;stroke-miterlimit:4;stroke-dasharray:none;stroke-opacity:1" transform="translate(1)"/></svg>
